assets/sonr-icons/apple.svg

<svg xmlns="http://www.w3.org/2000/svg" width="24" height="24" fill="none" viewBox="0 0 24 24"><path fill="#000" d="M10.531 7.55402C10.069 7.28802 9.572 7.00002 8.5 7.00002C6.5 7.00002 4 9.00002 4 13C4 17 6.644 22 9 22C9.75 22 10.125 21.75 10.5 21.5C10.875 21.25 11.25 21 12 21C12.75 21 13.125 21.25 13.5 21.5C13.875 21.75 14.25 22 15 22C16.678 22 18.857 19.485 19.972 16.578C20.087 16.278 19.874 15.959 19.565 15.874C18.086 15.465 17.001 14.109 17.001 12.5C17.001 11.184 17.727 10.039 18.8 9.44102C19.104 9.27102 19.231 8.86602 18.987 8.61802C17.915 7.53402 16.545 7.00002 15.502 7.00002C14.752 7.00002 14.252 7.25002 13.752 7.50002C13.252 7.75002 12.752 8.00002 12.002 8.00002C11.306 8.00002 10.933 7.78502 10.533 7.55402L10.532 7.55302L10.531 7.55402ZM12 5.55502C12 3.59202 13.592 1.99902 15.556 1.99902C15.801 1.99902 16.001 2.19802 16.001 2.44402C16.001 4.40702 14.409 6.00002 12.445 6.00002C12.2 6.00002 12 5.80102 12 5.55502Z"/></svg>

<svg xmlns="http://www.w3.org/2000/svg" width="24" height="24" fill="none"><path fill="currentColor" d="M10.531 7.554C10.069 7.288 9.572 7 8.5 7 6.5 7 4 9 4 13s2.644 9 5 9c.75 0 1.125-.25 1.5-.5s.75-.5 1.5-.5 1.125.25 1.5.5.75.5 1.5.5c1.678 0 3.857-2.515 4.972-5.422.115-.3-.098-.619-.407-.704a3.501 3.501 0 0 1-.765-6.433c.304-.17.431-.575.187-.823C17.915 7.534 16.545 7 15.502 7c-.75 0-1.25.25-1.75.5s-1 .5-1.75.5c-.696 0-1.069-.215-1.469-.446zM12 5.555a3.557 3.557 0 0 1 3.556-3.556c.245 0 .445.199.445.445A3.557 3.557 0 0 1 12.445 6 .445.445 0 0 1 12 5.555"/></svg>
